**harm	**harte	**silbe	**rhyme	**timestamp	**phrase	**leadinstrument	**kern
*M12/8	*M12/8	*	*	*	*	*	*
*	*	*	*	*	*	*	*
*	*	*	*	*	*	*	*
*e:	*e:	*	*	*e:	*e:	*e:	*e:
*	*	*	*	*	*	*	*
*	*	*	*	*	*	*	*
1r;	N	.	.	0	.	r	1r;
1r;	N	.	.	0.051	.	r	1r;
=1	=1	=1	=1	=1	=1	=1	=1
*>Letter>A	*>Letter>A	*>Letter>A	*>Letter>A	*>Letter>A	*>Letter>A	*>Letter>A	*>Letter>A
*>Label>Intro	*>Label>Intro	*>Label>Intro	*>Label>Intro	*>Label>Intro	*>Label>Intro	*>Label>Intro	*>Label>Intro
1.i	E:min	.	.	2.21	newline	guitar	1.E 1.g 1.b
=2	=2	=2	=2	=2	=2	=2	=2
1.i	E:min	.	.	5.563	.	guitar	1.E 1.g 1.b
.	.	.	.	.	.	.	.
.	.	.	.	.	.	.	.
.	.	.	.	.	.	.	.
.	.	I	.	.	.	.	.
.	.	put	.	.	.	.	.
.	.	a	.	.	.	.	.
=3	=3	=3	=3	=3	=3	=3	=3
*>Letter>A	*>Letter>A	*>Letter>A	*>Letter>A	*>Letter>A	*>Letter>A	*>Letter>A	*>Letter>A
*>Label>Verse	*>Label>Verse	*>Label>Verse	*>Label>Verse	*>Label>Verse	*>Label>Verse	*>Label>Verse	*>Label>Verse
1.i	E:min	spell	.	8.916	newline	voice	1.E 1.g 1.b
.	.	on	.	.	.	.	.
.	.	_	.	.	.	.	.
.	.	you	A	.	.	.	.
.	.	_	.	.	.	.	.
.	.	_	.	.	.	.	.
.	.	_	.	.	.	.	.
.	.	.	.	.	.	.	.
.	.	.	.	.	.	.	.
.	.	.	.	.	.	.	.
=4	=4	=4	=4	=4	=4	=4	=4
1.iv	A:min	.	.	12.27	.	voice	1.A 1.cc 1.ee
.	.	.	.	.	.	.	.
.	.	Be-	.	.	.	.	.
.	.	-cause	.	.	.	.	.
.	.	_	.	.	.	.	.
.	.	you're	.	.	.	.	.
=5	=5	=5	=5	=5	=5	=5	=5
1.i	E:min	mine	B	15.625	.	voice	1.E 1.g 1.b
.	.	_	.	.	.	.	.
.	.	_	.	.	.	.	.
.	.	_	.	.	.	.	.
.	.	_	.	.	.	.	.
.	.	.	.	.	.	.	.
.	.	.	.	.	.	.	.
=6	=6	=6	=6	=6	=6	=6	=6
1.i	E:min	.	.	18.979	.	voice	1.E 1.g 1.b
.	.	.	.	.	.	.	.
.	.	.	.	.	.	.	.
.	.	You	.	.	.	.	.
.	.	bet-	.	.	.	.	.
.	.	-ter	.	.	.	.	.
=7	=7	=7	=7	=7	=7	=7	=7
1.iv	A:min	stop	.	22.333	newline	voice	1.A 1.cc 1.ee
.	.	the	.	.	.	.	.
.	.	things	.	.	.	.	.
.	.	_	.	.	.	.	.
.	.	_	.	.	.	.	.
.	.	that	.	.	.	.	.
.	.	you're	.	.	.	.	.
.	.	do	(A	.	.	.	.
.	.	_	.	.	.	.	.
.	.	_	.	.	.	.	.
.	.	ing.	a)	.	.	.	.
.	.	.	.	.	.	.	.
.	.	.	.	.	.	.	.
=8	=8	=8	=8	=8	=8	=8	=8
1.iv	A:min	.	.	25.642	.	voice	1.A 1.cc 1.ee
.	.	.	.	.	.	.	.
.	.	.	.	.	.	.	.
.	.	I	.	.	.	.	.
.	.	said,	.	.	.	.	.
.	.	a'-	.	.	.	.	.
.	.	-watch	.	.	.	.	.
.	.	out!	.	.	.	.	.
.	.	.	.	.	.	.	.
.	.	.	.	.	.	.	.
.	.	.	.	.	.	.	.
.	.	I	.	.	.	.	.
.	.	ain't	.	.	.	.	.
=9	=9	=9	=9	=9	=9	=9	=9
1.V7	B:7	ly-	(B	28.951	.	voice	1.B 1.dd# 1.ff# 1.aa
.	.	-ing	b)	.	.	.	.
.	.	.	.	.	.	.	.
.	.	.	.	.	.	.	.
.	.	.	.	.	.	.	.
.	.	.	.	.	.	.	.
=10	=10	=10	=10	=10	=10	=10	=10
1.V7	B:7	.	.	32.26	.	voice	1.B 1.dd# 1.ff# 1.aa
.	.	Yeah!	.	.	.	.	.
.	.	_	.	.	.	.	.
.	.	_	.	.	.	.	.
.	.	_	.	.	.	.	.
.	.	.	.	.	.	.	.
=11	=11	=11	=11	=11	=11	=11	=11
1.i	E:min	.	.	35.569	newline	voice	1.E 1.g 1.b
.	.	I	.	.	.	.	.
.	.	ain't	.	.	.	.	.
.	.	gon-	.	.	.	.	.
.	.	-na	.	.	.	.	.
.	.	take	.	.	.	.	.
.	.	none	.	.	.	.	.
.	.	a'-	.	.	.	.	.
.	.	-your...	.	.	.	.	.
.	.	.	.	.	.	.	.
=12	=12	=12	=12	=12	=12	=12	=12
1.i	E:min	.	.	38.816	.	voice	1.E 1.g 1.b
.	.	foo-	.	.	.	.	.
.	.	-ling	.	.	.	.	.
.	.	a-	.	.	.	.	.
.	.	-round!	C	.	.	.	.
.	.	_	.	.	.	.	.
.	.	_	.	.	.	.	.
.	.	_	.	.	.	.	.
.	.	.	.	.	.	.	.
.	.	.	.	.	.	.	.
=13	=13	=13	=13	=13	=13	=13	=13
1.iv	A:min	.	.	42.063	.	voice	1.A 1.cc 1.ee
.	.	.	.	.	.	.	.
.	.	I	.	.	.	.	.
.	.	ain't	.	.	.	.	.
.	.	gon-	.	.	.	.	.
.	.	-na	.	.	.	.	.
.	.	take	.	.	.	.	.
.	.	none	.	.	.	.	.
.	.	a'-	.	.	.	.	.
.	.	-your	.	.	.	.	.
.	.	.	.	.	.	.	.
=14	=14	=14	=14	=14	=14	=14	=14
1.-VI	C:maj	.	.	45.31	.	voice	1.C- 1.e- 1.g-
.	.	.	.	.	.	.	.
.	.	a'-	.	.	.	.	.
.	.	-put-	.	.	.	.	.
.	.	-me-	.	.	.	.	.
.	.	-down!	C	.	.	.	.
.	.	_	.	.	.	.	.
.	.	_	.	.	.	.	.
.	.	.	.	.	.	.	.
.	.	.	.	.	.	.	.
.	.	.	.	.	.	.	.
.	.	I	.	.	.	.	.
.	.	put	.	.	.	.	.
.	.	a	.	.	.	.	.
=15	=15	=15	=15	=15	=15	=15	=15
1.i	E:min	spell	.	48.557	newline	voice	1.E 1.g 1.b
.	.	on	.	.	.	.	.
.	.	_	.	.	.	.	.
.	.	you	A	.	.	.	.
.	.	_	.	.	.	.	.
.	.	_	.	.	.	.	.
.	.	.	.	.	.	.	.
.	.	.	.	.	.	.	.
.	.	.	.	.	.	.	.
=16	=16	=16	=16	=16	=16	=16	=16
1.V7	B:7	.	.	51.816	.	voice	1.B 1.dd# 1.ff# 1.aa
.	.	.	.	.	.	.	.
.	.	Be-	.	.	.	.	.
.	.	-cause	.	.	.	.	.
.	.	_	.	.	.	.	.
.	.	_	.	.	.	.	.
.	.	you're	.	.	.	.	.
=17	=17	=17	=17	=17	=17	=17	=17
2.i	E:min	mine!	B	55.075	.	voice	2.E 2.g 2.b
.	.	_	.	.	.	.	.
.	.	.	.	.	.	.	.
.	.	Whoa,	.	.	.	.	.
2.iv	A:min	_	.	56.704	.	voice	2.A 2.cc 2.ee
.	.	al-	.	.	.	.	.
.	.	-right!	B	.	.	.	.
.	.	.	.	.	.	.	.
=18	=18	=18	=18	=18	=18	=18	=18
1.V7	B:7	.	.	58.334	.	voice	1.B 1.dd# 1.ff# 1.aa
=19	=19	=19	=19	=19	=19	=19	=19
*>Letter>A	*>Letter>A	*>Letter>A	*>Letter>A	*>Letter>A	*>Letter>A	*>Letter>A	*>Letter>A
*>Label>Solo	*>Label>Solo	*>Label>Solo	*>Label>Solo	*>Label>Solo	*>Label>Solo	*>Label>Solo	*>Label>Solo
1.i	E:min	.	.	61.593	newline	guitar	1.E 1.g 1.b
=20	=20	=20	=20	=20	=20	=20	=20
1.iv	A:min	.	.	64.801	.	guitar	1.A 1.cc 1.ee
=21	=21	=21	=21	=21	=21	=21	=21
1.i	E:min	.	.	68.009	.	guitar	1.E 1.g 1.b
=22	=22	=22	=22	=22	=22	=22	=22
1.i	E:min	.	.	71.217	.	guitar	1.E 1.g 1.b
=23	=23	=23	=23	=23	=23	=23	=23
1.iv	A:min	.	.	74.425	newline	guitar	1.A 1.cc 1.ee
=24	=24	=24	=24	=24	=24	=24	=24
1.iv	A:min	.	.	77.64	.	guitar	1.A 1.cc 1.ee
=25	=25	=25	=25	=25	=25	=25	=25
1.V7	B:7	.	.	80.855	.	guitar	1.B 1.dd# 1.ff# 1.aa
=26	=26	=26	=26	=26	=26	=26	=26
1.V7	B:7	.	.	84.071	.	guitar	1.B 1.dd# 1.ff# 1.aa
=27	=27	=27	=27	=27	=27	=27	=27
1.i	E:min	.	.	87.286	newline	guitar	1.E 1.g 1.b
=28	=28	=28	=28	=28	=28	=28	=28
1.i	E:min	.	.	90.414	.	guitar	1.E 1.g 1.b
=29	=29	=29	=29	=29	=29	=29	=29
1.iv	A:min	.	.	93.543	.	guitar	1.A 1.cc 1.ee
=30	=30	=30	=30	=30	=30	=30	=30
1.-VI	C:maj	.	.	96.671	.	guitar	1.C- 1.e- 1.g-
=31	=31	=31	=31	=31	=31	=31	=31
1.i	E:min	.	.	99.8	newline	guitar	1.E 1.g 1.b
=32	=32	=32	=32	=32	=32	=32	=32
1.V7	B:7	.	.	102.954	.	guitar	1.B 1.dd# 1.ff# 1.aa
=33	=33	=33	=33	=33	=33	=33	=33
2.i	E:min	.	.	106.109	.	guitar	1.E 1.g 1.b
2.iv	A:min	.	.	107.687	.	guitar	2A 2cc 2ee
=34	=34	=34	=34	=34	=34	=34	=34
2.V7	B:7	.	.	109.264	.	guitar	1.B 1.dd# 1.ff# 1.aa
2.-VI	C:maj	.	.	110.842	.	guitar	2C- 2e- 2g-
=35	=35	=35	=35	=35	=35	=35	=35
2.-II	F:maj	.	.	112.419	newline	guitar	1.F 1.a 1.cc
2.-VII	D:maj	.	.	114.014	.	guitar	2D 2f# 2a
=36	=36	=36	=36	=36	=36	=36	=36
2.-III	G:maj	.	.	115.608	.	guitar	1.G- 1.b- 1.dd-
2.IV	A:maj	.	.	117.203	.	guitar	2A 2cc# 2ee
=37	=37	=37	=37	=37	=37	=37	=37
*>Letter>A	*>Letter>A	*>Letter>A	*>Letter>A	*>Letter>A	*>Letter>A	*>Letter>A	*>Letter>A
*>Label>Solo	*>Label>Solo	*>Label>Solo	*>Label>Solo	*>Label>Solo	*>Label>Solo	*>Label>Solo	*>Label>Solo
1.i	E:min	.	.	118.798	newline	guitar	1.E 1.g 1.b
=38	=38	=38	=38	=38	=38	=38	=38
1.iv	A:min	.	.	121.96	.	guitar	1.A 1.cc 1.ee
=39	=39	=39	=39	=39	=39	=39	=39
1.i	E:min	.	.	125.122	.	guitar	1.E 1.g 1.b
=40	=40	=40	=40	=40	=40	=40	=40
1.i	E:min	.	.	128.285	.	guitar	1.E 1.g 1.b
=41	=41	=41	=41	=41	=41	=41	=41
1.iv	A:min	.	.	131.447	newline	guitar	1.A 1.cc 1.ee
=42	=42	=42	=42	=42	=42	=42	=42
1.iv	A:min	.	.	134.58	.	guitar	1.A 1.cc 1.ee
=43	=43	=43	=43	=43	=43	=43	=43
1.V7	B:7	.	.	137.712	.	guitar	1.B 1.dd# 1.ff# 1.aa
=44	=44	=44	=44	=44	=44	=44	=44
1.V7	B:7	.	.	140.845	.	guitar	1.B 1.dd# 1.ff# 1.aa
=45	=45	=45	=45	=45	=45	=45	=45
1.i	E:min	.	.	143.977	newline	guitar	1.E 1.g 1.b
=46	=46	=46	=46	=46	=46	=46	=46
1.i	E:min	.	.	147.082	.	guitar	1.E 1.g 1.b
=47	=47	=47	=47	=47	=47	=47	=47
1.iv	A:min	.	.	150.187	.	guitar	1.A 1.cc 1.ee
=48	=48	=48	=48	=48	=48	=48	=48
1.-VI	C:maj	.	.	153.292	.	guitar	1.C- 1.e- 1.g-
=49	=49	=49	=49	=49	=49	=49	=49
1.i	E:min	.	.	156.397	newline	guitar	1.E 1.g 1.b
=50	=50	=50	=50	=50	=50	=50	=50
1.V7	B:7	.	.	159.536	.	guitar	1.B 1.dd# 1.ff# 1.aa
=51	=51	=51	=51	=51	=51	=51	=51
2.i	E:min	.	.	162.675	.	guitar	1.E 1.g 1.b
2.iv	A:min	.	.	164.245	.	guitar	2A 2cc 2ee
=52	=52	=52	=52	=52	=52	=52	=52
2.V7	B:7	.	.	165.814	.	guitar	1.B 1.dd# 1.ff# 1.aa
2.-VI	C:maj	.	.	167.384	.	guitar	2C- 2e- 2g-
=53	=53	=53	=53	=53	=53	=53	=53
2.-II	F:maj	.	.	168.953	newline	guitar	1.F 1.a 1.cc
2.-VII	D:maj	.	.	170.528	.	guitar	2D 2f# 2a
=54	=54	=54	=54	=54	=54	=54	=54
2.-III	G:maj	.	.	172.103	.	guitar	2.G- 2.b- 2.dd-
2.IV	A:maj	.	.	173.677	.	guitar	2.A 2.cc# 2.ee
.	.	.	.	.	.	.	.
.	.	.	.	.	.	.	.
.	.	I	.	.	.	.	.
.	.	put	.	.	.	.	.
.	.	a	.	.	.	.	.
=55	=55	=55	=55	=55	=55	=55	=55
*>Letter>A	*>Letter>A	*>Letter>A	*>Letter>A	*>Letter>A	*>Letter>A	*>Letter>A	*>Letter>A
*>Label>Verse	*>Label>Verse	*>Label>Verse	*>Label>Verse	*>Label>Verse	*>Label>Verse	*>Label>Verse	*>Label>Verse
1.i	E:min	spell	.	175.252	newline	voice	1.E 1.g 1.b
.	.	on	.	.	.	.	.
.	.	_	.	.	.	.	.
.	.	you	A	.	.	.	.
.	.	_	.	.	.	.	.
.	.	_	.	.	.	.	.
.	.	_	.	.	.	.	.
.	.	_	.	.	.	.	.
.	.	.	.	.	.	.	.
.	.	.	.	.	.	.	.
.	.	.	.	.	.	.	.
.	.	.	.	.	.	.	.
=56	=56	=56	=56	=56	=56	=56	=56
1.iv	A:min	.	.	178.411	.	voice	1.A 1.cc 1.ee
.	.	.	.	.	.	.	.
.	.	.	.	.	.	.	.
.	.	Be-	.	.	.	.	.
.	.	-cause	.	.	.	.	.
.	.	_	.	.	.	.	.
.	.	you're	.	.	.	.	.
=57	=57	=57	=57	=57	=57	=57	=57
1.i	E:min	mine	B	181.57	.	voice	1.E 1.g 1.b
.	.	_	.	.	.	.	.
.	.	_	.	.	.	.	.
.	.	_	.	.	.	.	.
.	.	_	.	.	.	.	.
.	.	.	.	.	.	.	.
.	.	.	.	.	.	.	.
=58	=58	=58	=58	=58	=58	=58	=58
1.i	E:min	.	.	184.729	.	voice	1.E 1.g 1.b
.	.	.	.	.	.	.	.
.	.	.	.	.	.	.	.
.	.	You	.	.	.	.	.
.	.	bet-	.	.	.	.	.
.	.	-ter	.	.	.	.	.
=59	=59	=59	=59	=59	=59	=59	=59
1.iv	A:min	stop	.	187.888	newline	voice	1.A 1.cc 1.ee
.	.	the	.	.	.	.	.
.	.	things	.	.	.	.	.
.	.	_	.	.	.	.	.
.	.	_	.	.	.	.	.
.	.	that	.	.	.	.	.
.	.	you're	.	.	.	.	.
.	.	do	(A	.	.	.	.
.	.	_	.	.	.	.	.
.	.	_	.	.	.	.	.
.	.	_	.	.	.	.	.
.	.	ing.	a)	.	.	.	.
.	.	.	.	.	.	.	.
=60	=60	=60	=60	=60	=60	=60	=60
1.iv	A:min	.	.	191.07	.	voice	1.A 1.cc 1.ee
.	.	.	.	.	.	.	.
.	.	.	.	.	.	.	.
.	.	I	.	.	.	.	.
.	.	said,	.	.	.	.	.
.	.	a'-	.	.	.	.	.
.	.	-watch	.	.	.	.	.
.	.	out!	.	.	.	.	.
.	.	.	.	.	.	.	.
.	.	.	.	.	.	.	.
.	.	I	.	.	.	.	.
.	.	ain't	.	.	.	.	.
=61	=61	=61	=61	=61	=61	=61	=61
1.V7	B:7	ly-	(B	194.251	.	voice	1.B 1.dd# 1.ff# 1.aa
.	.	-ing	b)	.	.	.	.
.	.	.	.	.	.	.	.
.	.	.	.	.	.	.	.
.	.	.	.	.	.	.	.
.	.	.	.	.	.	.	.
=62	=62	=62	=62	=62	=62	=62	=62
1.V7	B:7	.	.	197.432	.	voice	1.B 1.dd# 1.ff# 1.aa
.	.	Yeah!	.	.	.	.	.
.	.	_	.	.	.	.	.
.	.	_	.	.	.	.	.
.	.	_	.	.	.	.	.
.	.	.	.	.	.	.	.
=63	=63	=63	=63	=63	=63	=63	=63
1.i	E:min	.	.	200.613	newline	voice	1.E 1.g 1.b
.	.	.	.	.	.	.	.
.	.	I	.	.	.	.	.
.	.	ain't	.	.	.	.	.
.	.	gon-	.	.	.	.	.
.	.	-na	.	.	.	.	.
.	.	take	.	.	.	.	.
.	.	none	.	.	.	.	.
.	.	a'-	.	.	.	.	.
.	.	-your	.	.	.	.	.
.	.	.	.	.	.	.	.
.	.	.	.	.	.	.	.
=64	=64	=64	=64	=64	=64	=64	=64
1.i	E:min	.	.	203.776	.	voice	1.E 1.g 1.b
.	.	foo-	.	.	.	.	.
.	.	-ling	.	.	.	.	.
.	.	a-	.	.	.	.	.
.	.	-round	C	.	.	.	.
.	.	_	.	.	.	.	.
.	.	_	.	.	.	.	.
.	.	_	.	.	.	.	.
.	.	_	.	.	.	.	.
.	.	.	.	.	.	.	.
=65	=65	=65	=65	=65	=65	=65	=65
1.iv	A:min	.	.	206.939	.	voice	1.A 1.cc 1.ee
.	.	.	.	.	.	.	.
.	.	I	.	.	.	.	.
.	.	ain't	.	.	.	.	.
.	.	gon-	.	.	.	.	.
.	.	-na	.	.	.	.	.
.	.	take	.	.	.	.	.
.	.	none	.	.	.	.	.
.	.	a'-	.	.	.	.	.
.	.	-your	.	.	.	.	.
.	.	.	.	.	.	.	.
=66	=66	=66	=66	=66	=66	=66	=66
1.-VI	C:maj	.	.	210.102	.	voice	1.C- 1.e- 1.g-
.	.	.	.	.	.	.	.
.	.	a'-	.	.	.	.	.
.	.	-put-	.	.	.	.	.
.	.	-me-	.	.	.	.	.
.	.	-down!	C	.	.	.	.
.	.	_	.	.	.	.	.
.	.	_	.	.	.	.	.
.	.	_	.	.	.	.	.
.	.	.	.	.	.	.	.
.	.	.	.	.	.	.	.
.	.	I	.	.	.	.	.
.	.	put	.	.	.	.	.
.	.	a	.	.	.	.	.
=67	=67	=67	=67	=67	=67	=67	=67
1.i	E:min	spell	.	213.265	newline	voice	1.E 1.g 1.b
.	.	on	.	.	.	.	.
.	.	_	.	.	.	.	.
.	.	you	A	.	.	.	.
.	.	_	.	.	.	.	.
.	.	_	.	.	.	.	.
.	.	_	.	.	.	.	.
.	.	_	.	.	.	.	.
.	.	.	.	.	.	.	.
=68	=68	=68	=68	=68	=68	=68	=68
1.V7	B:7	.	.	216.418	.	voice	1.B 1.dd# 1.ff# 1.aa
.	.	.	.	.	.	.	.
.	.	Be-	.	.	.	.	.
.	.	-cause	.	.	.	.	.
.	.	_	.	.	.	.	.
.	.	_	.	.	.	.	.
.	.	you're	.	.	.	.	.
=69	=69	=69	=69	=69	=69	=69	=69
2.i	E:min	mine!	B	219.571	.	voice	2.E 2.g 2.b
.	.	_	.	.	.	.	.
.	.	.	.	.	.	.	.
.	.	Oh,	.	.	.	.	.
2.iv	A:min	_	.	221.148	.	voice	2.A 2.cc 2.ee
.	.	_	.	.	.	.	.
.	.	_	.	.	.	.	.
.	.	_	.	.	.	.	.
.	.	_	.	.	.	.	.
.	.	_	.	.	.	.	.
.	.	.	.	.	.	.	.
=70	=70	=70	=70	=70	=70	=70	=70
2.V7	B:7	.	.	222.724	.	voice	1.B 1.dd# 1.ff# 1.aa
2.-VI	C:maj	.	.	224.301	.	voice	2C- 2e- 2g-
=71	=71	=71	=71	=71	=71	=71	=71
2.-II	F:maj	.	.	225.877	newline	voice	1.F 1.a 1.cc
2.-VII	D:maj	.	.	227.886	.	voice	2D 2f# 2a
=72	=72	=72	=72	=72	=72	=72	=72
2.-III	G:maj	.	.	229.895	.	voice	1.G- 1.b- 1.dd-
2.IV	A:maj	.	.	231.234	.	voice	2A 2cc# 2ee
=73	=73	=73	=73	=73	=73	=73	=73
1.i	E:min	.	.	233.913	newline	guitar	1.E 1.g 1.b
1r;	N	.	.	245.827	.	r	1r;
1r;	N	.	.	252.989	.	r	1r;
1r;	N	.	.	254.276	.	r	1r;
*-	*-	*-	*-	*-	*-	*-	*-
!!!BillboardChartDate: 1968/11/16
!!!BillboardPeak: 58
!!!BillboardWeeksOnChart: 9
!!!COC: Creedence Clearwater Revival
!!!ENC: Nathaniel Condit-Schultz
!!!EST: Awating manual error checking and editing.
!!!OTL: I Put A Spell On You
!!!RDF**harte: Chris Harte's syntax, used by MIREX
!!!RDF**harmony: **recip + pitch class of root + harmonic quality
!!!RDF**leadinstrument: original McGill primary instrumentation annotation
!!!RDF**phrase: newline = linebreak in original McGill transcription
!!!RDF**timestamp: McGill audio timestamp in seconds
!!!RDT: 2017/01/12/
!!!SampleActualRank: 96
!!!SampleID#: 0061
!!!SampleTargetRank: 95
!!!MBID: 214f85d2-e95c-4c45-9aa6-e57fc84d3e2c
